logos/aws-cloudformation.svg

<?xml version="1.0" encoding="UTF-8"?>
<svg width="256px" height="256px" viewBox="0 0 256 256" version="1.1" xmlns="http://www.w3.org/2000/svg" xmlns:xlink="http://www.w3.org/1999/xlink" preserveAspectRatio="xMidYMid">
    <title>AWS CloudFormation</title>
    <defs>
        <linearGradient x1="0%" y1="100%" x2="100%" y2="0%" id="linearGradient-1">
            <stop stop-color="#B0084D" offset="0%"></stop>
            <stop stop-color="#FF4F8B" offset="100%"></stop>
        </linearGradient>
    </defs>
    <g>
        <rect fill="url(#linearGradient-1)" x="0" y="0" width="256" height="256"></rect>
        <path d="M169.6,127.882252 L185.6,127.882252 L185.6,121.47244 L169.6,121.47244 L169.6,127.882252 Z M89.6,166.341126 L105.6,166.341126 L105.6,159.931314 L89.6,159.931314 L89.6,166.341126 Z M57.6,166.341126 L80,166.341126 L80,159.931314 L57.6,159.931314 L57.6,166.341126 Z M57.6,147.111689 L96,147.111689 L96,140.701877 L57.6,140.701877 L57.6,147.111689 Z M57.6,108.652815 L86.4,108.652815 L86.4,102.243003 L57.6,102.243003 L57.6,108.652815 Z M57.6,127.882252 L163.2,127.882252 L163.2,121.47244 L57.6,121.47244 L57.6,127.882252 Z M118.4,198.390188 L44.8,198.390188 L44.8,89.4233786 L118.4,89.4233786 L118.4,115.062628 L124.8,115.062628 L124.8,86.2184723 C124.8,84.4493642 123.3664,83.0135664 121.6,83.0135664 L41.6,83.0135664 C39.8304,83.0135664 38.4,84.4493642 38.4,86.2184723 L38.4,201.595094 C38.4,203.364202 39.8304,204.8 41.6,204.8 L121.6,204.8 C123.3664,204.8 124.8,203.364202 124.8,201.595094 L124.8,137.496971 L118.4,137.496971 L118.4,198.390188 Z M217.6,118.267534 C217.6,138.977637 198.9536,146.182267 189.0944,147.09887 L137.6,147.111689 L137.6,140.701877 L188.8,140.701877 C189.424,140.628164 211.2,138.278968 211.2,118.267534 C211.2,100.044437 194.7616,96.345976 191.4688,95.7883222 C189.8272,95.5094954 188.672,94.0224189 188.8128,92.3622774 C188.816,92.3013843 188.8224,92.243696 188.8288,92.1860077 C188.6528,81.8886442 182.3392,78.6709184 179.6032,77.7607251 C174.496,76.0621248 168.8032,77.6870122 165.792,81.7251939 C165.0912,82.6738461 163.9328,83.1577872 162.7552,82.9783123 C161.5904,82.8020426 160.6144,82.000816 160.2176,80.8855085 C158.2304,75.3153818 155.3472,71.7066573 151.3376,67.6909101 C141.3088,57.7236518 127.696,54.9706374 114.96,60.3292406 C108.2784,63.146353 102.4384,69.5305261 98.9504,77.8472576 L93.0496,75.3602502 C97.184,65.5179837 104.2688,57.8838973 112.48,54.4225984 C127.696,48.015991 143.9072,51.2817904 155.8528,63.1495581 C159.2768,66.5820125 162.112,69.9247296 164.32,74.251353 C169.0976,70.7131363 175.5424,69.6555174 181.6224,71.6778131 C189.4048,74.2673773 194.3264,81.0265245 195.12,90.0130813 C206.0192,92.7628909 217.6,101.477031 217.6,118.267534 L217.6,118.267534 Z" fill="#FFFFFF"></path>
    </g>
</svg>

<svg width="256" height="256" xmlns="http://www.w3.org/2000/svg" preserveAspectRatio="xMidYMid">
	<defs>
		<linearGradient x1="0%" y1="100%" x2="100%" y2="0%" id="a">
			<stop stop-color="#B0084D" offset="0%"/>
			<stop stop-color="#FF4F8B" offset="100%"/>
		</linearGradient>
	</defs>
	<path fill="url(#a)" d="M0 0h256v256H0z"/>
	<path d="M169.6 127.882h16v-6.41h-16v6.41Zm-80 38.46h16v-6.41h-16v6.41Zm-32 0H80v-6.41H57.6v6.41Zm0-19.23H96v-6.41H57.6v6.41Zm0-38.46h28.8v-6.409H57.6v6.41Zm0 19.23h105.6v-6.41H57.6v6.41Zm60.8 70.508H44.8V89.423h73.6v25.64h6.4V86.218a3.204 3.204 0 0 0-3.2-3.204h-80c-1.77 0-3.2 1.435-3.2 3.204v115.377c0 1.77 1.43 3.205 3.2 3.205h80c1.766 0 3.2-1.436 3.2-3.205v-64.098h-6.4v60.893Zm99.2-80.122c0 20.71-18.646 27.914-28.506 28.83l-51.494.014v-6.41h51.2c.624-.074 22.4-2.423 22.4-22.434 0-18.224-16.438-21.922-19.731-22.48a3.2 3.2 0 0 1-2.656-3.426c.003-.06.01-.118.016-.176-.176-10.297-6.49-13.515-9.226-14.425-5.107-1.699-10.8-.074-13.811 3.964a3.167 3.167 0 0 1-3.037 1.253 3.2 3.2 0 0 1-2.537-2.092c-1.988-5.57-4.87-9.18-8.88-13.195-10.03-9.967-23.642-12.72-36.378-7.362-6.682 2.817-12.522 9.202-16.01 17.518l-5.9-2.487c4.134-9.842 11.219-17.476 19.43-20.937 15.216-6.407 31.427-3.141 43.373 8.727 3.424 3.432 6.259 6.775 8.467 11.101 4.778-3.538 11.222-4.595 17.302-2.573 7.783 2.59 12.704 9.349 13.498 18.335 10.9 2.75 22.48 11.464 22.48 28.255Z" fill="#FFF"/>
</svg>
